X: 40074
T: Thrush In The Storm, The
R: reel
M: 4/4
K: Fmajor
AccA cdfg|abag fddg|fdcA cdcA|GBAG F~d3|
AccA cdfg|a2 ag f~d3|fdcA cdfg|1 a2 c'b affB:|2 a2 c'b af f2||
agfa gfde|f/f/f af dcAc|F~A3 c2 af|gbaf gf d/e/f|
agfa gfde|f/f/f af dcAd|~c3 A cdfg|a2 c'b affg|
~a3f gc'ag|fagf dcAc|F~A3 c2 af|g/a/b af gf d/e/f|
~a3f ~g3a|f/f/f af dcAd|~c3A cdfg|a2 c'b affB||

